src/assets/bold/lm-round-bubble-chat-bold.svg

<svg xmlns="http://www.w3.org/2000/svg" width="24" height="24" fill="currentColor" viewBox="0 0 24 24">
  <path d="M16.5 9c-.5-3.4-3.8-6-7.7-6C4.5 3 1 6 1 9.8c0 1.7.7 3.3 2 4.5v2.5c0 .3.1.5.4.7.1.1.2.1.4.1.1 0 .3 0 .4-.1l2.1-1.3c.8.2 1.7.4 2.5.4.6 0 1.2-.1 1.8-.2 1 1.9 3.2 3.2 5.8 3.2.4 0 .9 0 1.4-.1l1.7 1c.1.1.3.1.4.1.1 0 .3 0 .4-.1.2-.1.4-.4.4-.7v-1.6c1.3-1 2-2.4 2-3.9-.2-2.9-2.9-5.2-6.2-5.3Zm-7.8 6c-.8 0-1.6-.1-2.4-.4-.2-.1-.4 0-.6.1l-1.3.8V14c0-.2-.1-.4-.3-.6-1.1-1-1.7-2.3-1.7-3.6 0-2.9 2.8-5.2 6.2-5.2 3.2 0 5.8 2 6.2 4.6-2.8.5-5 2.6-5 5.1v.6c-.2 0-.6.1-1.1.1Zm10.6 2.1c-.2.1-.3.4-.3.6v.7l-.8-.5c-.1-.1-.3-.1-.4-.1h-.2c-.4.1-.9.2-1.4.2-2.6 0-4.8-1.7-4.8-3.8 0-2.1 2.1-3.8 4.8-3.8 2.7 0 4.8 1.8 4.8 3.8 0 1.1-.6 2.2-1.7 2.9Z"/>
</svg>

<svg width="24" height="24" viewBox="0 0 24 24" fill="none" xmlns="http://www.w3.org/2000/svg" fill="currentColor">
<path d="M16.5 9C16 5.6 12.7 3 8.8 3C4.5 3 1 6 1 9.8C1 11.5 1.7 13.1 3 14.3V16.8C3 17.1 3.1 17.3 3.4 17.5C3.5 17.6 3.6 17.6 3.8 17.6C3.9 17.6 4.1 17.6 4.2 17.5L6.3 16.2C7.1 16.4 8 16.6 8.8 16.6C9.4 16.6 10 16.5 10.6 16.4C11.6 18.3 13.8 19.6 16.4 19.6C16.8 19.6 17.3 19.6 17.8 19.5L19.5 20.5C19.6 20.6 19.8 20.6 19.9 20.6C20 20.6 20.2 20.6 20.3 20.5C20.5 20.4 20.7 20.1 20.7 19.8V18.2C22 17.2 22.7 15.8 22.7 14.3C22.5 11.4 19.8 9.1 16.5 9ZM8.7 15C7.9 15 7.1 14.9 6.3 14.6C6.1 14.5 5.9 14.6 5.7 14.7L4.4 15.5V14C4.4 13.8 4.3 13.6 4.1 13.4C3 12.4 2.4 11.1 2.4 9.8C2.4 6.9 5.2 4.6 8.6 4.6C11.8 4.6 14.4 6.6 14.8 9.2C12 9.7 9.8 11.8 9.8 14.3C9.8 14.5 9.8 14.7 9.8 14.9C9.6 14.9 9.2 15 8.7 15ZM19.3 17.1C19.1 17.2 19 17.5 19 17.7V18.4L18.2 17.9C18.1 17.8 17.9 17.8 17.8 17.8C17.7 17.8 17.7 17.8 17.6 17.8C17.2 17.9 16.7 18 16.2 18C13.6 18 11.4 16.3 11.4 14.2C11.4 12.1 13.5 10.4 16.2 10.4C18.9 10.4 21 12.2 21 14.2C21 15.3 20.4 16.4 19.3 17.1Z" fill="black"/>
</svg>
